X: 14620
T: Gan Ainm
R: slide
M: 12/8
K: Amajor
|:B|c2 c cBA f2 e cec|BcB BAB c2 B A2 B|
c2 c cBA f2 e cec|BcB BcB A3 A2:|
|:e|aga a2 g faf e2 c|BcB BAB c2 B A2 e|
aga a2 g faf e2 c|BcB BcB A3 A2:|

